shield-star.svg

<svg fill="currentColor" viewBox="0 0 24 24"><path d="M12 1 3 5v6c0 5.55 3.84 10.74 9 12 5.16-1.26 9-6.45 9-12V5zm3.08 15L12 14.15 8.93 16l.81-3.5-2.71-2.34 3.58-.31L12 6.55l1.39 3.29 3.58.31-2.71 2.35z"/></svg>

<svg  viewBox="0 0 24 24" fill="currentColor"><path  d="M12 1L3 5V11C3 16.55 6.84 21.74 12 23C17.16 21.74 21 16.55 21 11V5L12 1M15.08 16L12 14.15L8.93 16L9.74 12.5L7.03 10.16L10.61 9.85L12 6.55L13.39 9.84L16.97 10.15L14.26 12.5L15.08 16Z"/></svg>
